!!!OTL: GESTERN ABEND IN DER STILLEN RUH
!!!ARE: Europa, Mitteleuropa, Deutschland, Schwaben, Kuestrin
!!!SCT: E0522
!!!YEM: Copyright 1995, estate of Helmut Schaffrath.
**kern
*ICvox
*Ivox
!! Mixed meters:  2/4; 3/4
*M2/4
*k[f#]
*G:
=1
{8b
16g
16a
8b
8g
=2
8b
8dd
8cc
8b
=3
4b
4a}
=4
{8a
16f#
16g
8a
8f#
=5
8a
8cc
8b
8a
=6
4a
4g}
=7
*M3/4
{8dd
16b
16cc
8dd
16b
16cc
4dd
=8
8a
8b
8cc
16b
16a
4b}
=9
*M2/4
{8g
8gg
8ff#
8ee
=10
8dd
16b
16cc
4dd}
=11
{8cc
8a
8b
8g
=12
8a
8f#
4g}
==
!!!AGN: Liebes - Lied
!!!ONB: ESAC (Essen Associative Code) Database: ERK1
!!!AMT: irregular
!!!AIN: vox
!!!EED: Helmut Schaffrath
!!!EEV: 1.0
*-
